X:1
T:Title
%%score ( 1 2 ) { 3 | 4 }
L:1/8
Q:1/4=97
M:4/4
K:Eb
V:1 treble nm="Grand Piano, Soprano"
V:2 treble 
V:3 bass nm="Choir Pad, The White Horse Calvary"
V:4 bass 
V:1
 B, [B,E]2 [B,E] [EG] [GB]2 [EG] | [GB] [Ac]2 [Ae] [Ae] [GB]3 | [EG] [B,E]2 [B,E] [EG] [GB]2 [EG] | %3
w: By~H.~R.~Jeffrey * * * * *|||
 [GB]cB[EG] E [DF]3 | [DG]/[DG]/ [B,E]2 [B,E] [EG] [GB]2 [EG] | [GB] [Ac]2 [Ae] [Ae] [GB]3 | %6
w: |||
 [GB] [Ac]2 [Ac]- [Ac]/[Ac]/[Ac] [GB][EG] | [EB]BA[DF]- [DF]/[DG]/ E3 | %8
w: ||
 [GB] [Ge]2 [Ge]- [Ge]/[Ge]/ [Ge]3 | [Bd] [Ac]2 [Ae]- [Ae]/[Ac]/ [GB]3 | %10
w: ||
 [GB] [Ac]2 [Ac]- [Ac]/[Ac]/ [Ac]3 | [Ac][Ac][GB][GB]- [GB]/[EG]/ [GB]3 | %12
w: ||
 [GB][Ge][Ge][Ge]- [Ge] [Ge]2 [Ge] | [Bd][Ac][Ad][Ae]- [Ae] [GB]3 | %14
w: ||
 [GB] [Ac]2 [Ac]- [Ac]/[Ac]/[Ac] [GB]2 | [EG][EB][DA][DF]- [DF] E3- | E4 z4 |] %17
w: |||
V:2
 x8 | x8 | x8 | z .E3 z4 | x8 | x8 | x8 | z .D3 z4 | x8 | x8 | x8 | x8 | x8 | x8 | x8 | x8 | x8 |] %17
V:3
 G, G,2 G, B, E2 B, | E E2 C C E3 | B, G,2 G, B, E2 B, | E E2 B, G, B,3 | %4
 B,/B,/ G,2 G, B,[K:treble] E2 B, | E E2 C C E3 | E E2 E- E/E/ E2[K:bass] B, | %7
 B, B,2 B,- B,/A,/ G,3 | B, B,2 B,- B,/B,/ B,3 | E E2 C- C/E/ E3 | E E2 E- E/E/ E3 | %11
 E E2 E- E/B,/ E3 | E[K:bass]B,B,B,- B, B,2 B, | EECC- C E3 | E E2 E- E/E/E E2 | %15
 B,G,F,A,- A, G,3- | G,4 z4 |] %17
V:4
 E, E,2 E, E, E,2 E, | E, A,2 A, A, E,3 | E, E,2 E, E, E,2 E, | G,A,G,E, C, B,,3 | %4
 B,,/B,,/ E,2 E, E, E,2 E, | E, A,2 A, A, E,3 | E, A,2 A,- A,/A,/ E,2 E, | %7
 G,, B,,2 B,,- B,,/B,,/ E,3 | E, E,2 E,- E,/E,/ E,3 | G, A,2 A,- A,/A,/ E,3 | %10
 E, A,2 A,- A,/A,/ A,3 | A, E,2 E,- E,/E,/ E,3 | E,E,E,E,- E, E,2 E, | G,A,A,A,- A, E,3 | %14
 E, A,2 A,- A,/A,/E, E,2 | E,B,,B,,B,,- B,, E,3- | E,4 z4 |] %17

